X:535
T:Merry Making, The
T:A' Chridhealachd
R:Reel
B:The Athole Collection
M:C|
L:1/8
K:F
B|A/B/c cB Acfc|A/B/c cd _eGGB|A/B/c cB Acfc|e/f/g g>e f2f:|
|:b|af~fg a>gfc|egfg eccb|1 af~fg agfc|dbge ~f2f:|2 afge fdcB|
Afge ~f2f||
|:c|A/B/c cf dBBd|A/B/c ce fcac|A/B/c cf dBBd|cbge ~f2f:|
g|bggb affa|gece cega|babg afaf|ecge ~f2 fg|bggb affa|gece ~fdcB|
AfBf cfdf|e/f/g ge ~f2f||

